src/assets/filled/Wallet.svg

<svg width="24" height="24" viewBox="0 0 24 24"  xmlns="http://www.w3.org/2000/svg">
<path d="M21.4499 13.64V14.64C21.4499 14.91 21.2399 15.13 20.9599 15.14H19.4999C18.9699 15.14 18.4899 14.75 18.4499 14.23C18.4199 13.92 18.5399 13.63 18.7399 13.43C18.9199 13.24 19.1699 13.14 19.4399 13.14H20.9499C21.2399 13.15 21.4499 13.37 21.4499 13.64Z" />
<path d="M17.99 12.69C17.49 13.18 17.25 13.91 17.45 14.67C17.71 15.6 18.62 16.19 19.58 16.19H20.45C21 16.19 21.45 16.64 21.45 17.19V17.38C21.45 19.45 19.76 21.14 17.69 21.14H6.20995C4.13995 21.14 2.44995 19.45 2.44995 17.38V10.65C2.44995 9.42001 3.03995 8.33001 3.94995 7.65001C4.57995 7.17001 5.35995 6.89001 6.20995 6.89001H17.69C19.76 6.89001 21.45 8.58001 21.45 10.65V11.09C21.45 11.64 21 12.09 20.45 12.09H19.43C18.87 12.09 18.36 12.31 17.99 12.69Z" />
<path d="M16.2001 4.82C16.4701 5.09 16.2401 5.51 15.8601 5.51L8.18006 5.5C7.74006 5.5 7.51006 4.96 7.83006 4.65L9.45006 3.02C10.8201 1.66 13.0401 1.66 14.4101 3.02L16.1601 4.79C16.1701 4.8 16.1901 4.81 16.2001 4.82Z" />
</svg>

<?xml version="1.0" encoding="UTF-8"?>
<svg width="24" height="24" viewBox="0 0 24 24" xmlns="http://www.w3.org/2000/svg">
 <path d="m21.45 13.64v1c0 0.27-0.21 0.49-0.49 0.5h-1.46c-0.53 0-1.01-0.39-1.05-0.91-0.03-0.31 0.09-0.6 0.29-0.8 0.18-0.19 0.43-0.29 0.7-0.29h1.51c0.29 0.01 0.5 0.23 0.5 0.5z"/>
 <path d="m17.99 12.69c-0.5 0.49-0.74 1.22-0.54 1.98 0.26 0.93 1.17 1.52 2.13 1.52h0.87c0.55 0 1 0.45 1 1v0.19c0 2.07-1.69 3.76-3.76 3.76h-11.48c-2.07 0-3.76-1.69-3.76-3.76v-6.73c0-1.23 0.59-2.32 1.5-3 0.63-0.48 1.41-0.76 2.26-0.76h11.48c2.07 0 3.76 1.69 3.76 3.76v0.44c0 0.55-0.45 1-1 1h-1.02c-0.56 0-1.07 0.22-1.44 0.6z"/>
 <path d="m16.2 4.82c0.27 0.27 0.04 0.69-0.34 0.69l-7.68-0.01c-0.44 0-0.67-0.54-0.35-0.85l1.62-1.63c1.37-1.36 3.59-1.36 4.96 0l1.75 1.77c0.01 0.01 0.03 0.02 0.04 0.03z"/>
</svg>
